X: 17
T:Willie was a Wanton Wag
M:4/4
L:1/8
Q:120
R:March
K:D
A|FA AB/2c/2 d>e dA/2G/2|FA Af ed BA/2G/2|
FA AB/2c/2 d/2c/2d/2e/2 f/2e/2f/2g/2|a A A f e>f d::!
g|fa ef d>e fd|fa ef ed Bg|
fa ef d/2c/2d/2e/2 f/2e/2f/2g/2|a A A f e>f d:|
